X: 1
T: Flying Column, The
M: 4/4
L: 1/8
R: reel
K: Dmaj
D2ED ADED|Addc Adfd|D2ED ADFA|B2AF E2BE|
D2ED ADED|Addc d2fg|affe faeB|~B2AF EDB,D:|
dcdB AF~F2|AFBF AF~F2|dcdB AF~F2|BFAF EDB,D|
d2cd B2AF|Addc d2fg|affe (3fga eB|~B2AF EDB,D:|
